icons/evolvere-blue-folders-flat-vivid-dark-fallback/apps/64/nepomuk.svg

<svg xmlns="http://www.w3.org/2000/svg" viewBox="0 0 64 64" xmlns:xlink="http://www.w3.org/1999/xlink"><defs><path id="0" d="M61 42.5A16.5 16.5 0 0 1 44.5 59 16.5 16.5 0 0 1 28 42.5 16.5 16.5 0 0 1 44.5 26 16.5 16.5 0 0 1 61 42.5" color="#000"/></defs><g color="#000"><path d="m0 4v30 28l2 2h30 30l2-2v-28-30h-32-32" fill="#2aa3b9"/><path d="m2 0l-2 1v3h32 32v-3l-2-1h-30-30" fill="#78e4f7"/></g><path d="m0 3v3l2-2" fill="#a5edfa"/><path d="m64 6l-2-2 2-1z" fill="#52c4d9"/><use transform="matrix(1.09091 0 0 1.09091-5.545-3.364)" fill="#005c7e" fill-rule="evenodd" fill-opacity=".367" xlink:href="#0"/><use transform="matrix(.78788 0 0 .78788 7.939 9.515)" fill="#2fb1f3" xlink:href="#0"/><use transform="matrix(.81818 0 0 .81818-16.909-14.273)" fill="#005c7e" fill-rule="evenodd" fill-opacity=".367" xlink:href="#0"/><use transform="matrix(.63636 0 0 .63636-8.818-6.545)" fill="#ca59d3" xlink:href="#0"/><use transform="matrix(.66667 0 0 .66667-15.667 21.667)" fill="#005c7e" fill-rule="evenodd" fill-opacity=".367" xlink:href="#0"/><use transform="matrix(.48485 0 0 .48485-7.576 29.394)" fill="#42ce5a" xlink:href="#0"/><use transform="matrix(.48485 0 0 .48485 31.424-5.606)" fill="#005c7e" fill-rule="evenodd" fill-opacity=".367" xlink:href="#0"/><use transform="matrix(.36364 0 0 .36364 36.818-.455)" fill="#e1c33b" xlink:href="#0"/></svg>

<?xml version="1.0" encoding="UTF-8" standalone="no"?>
<!-- Created with Inkscape (http://www.inkscape.org/) -->

<svg
   xmlns:dc="http://purl.org/dc/elements/1.1/"
   xmlns:cc="http://creativecommons.org/ns#"
   xmlns:rdf="http://www.w3.org/1999/02/22-rdf-syntax-ns#"
   xmlns:svg="http://www.w3.org/2000/svg"
   xmlns="http://www.w3.org/2000/svg"
   xmlns:sodipodi="http://sodipodi.sourceforge.net/DTD/sodipodi-0.dtd"
   xmlns:inkscape="http://www.inkscape.org/namespaces/inkscape"
   width="64"
   height="64"
   id="svg13094"
   version="1.1"
   inkscape:version="0.91+devel r"
   sodipodi:docname="nepomuk.svg">
  <sodipodi:namedview
     id="base"
     pagecolor="#ffffff"
     bordercolor="#666666"
     borderopacity="1.0"
     inkscape:pageopacity="0"
     inkscape:pageshadow="2"
     inkscape:zoom="11.313709"
     inkscape:cx="35.745857"
     inkscape:cy="31.61194"
     inkscape:document-units="px"
     inkscape:current-layer="svg13094"
     showgrid="true"
     inkscape:snap-bbox="true"
     inkscape:bbox-paths="true"
     inkscape:bbox-nodes="true"
     inkscape:snap-bbox-edge-midpoints="true"
     inkscape:snap-bbox-midpoints="true"
     inkscape:object-paths="true"
     inkscape:snap-intersection-paths="true"
     inkscape:object-nodes="true"
     inkscape:snap-smooth-nodes="true"
     inkscape:snap-midpoints="true"
     inkscape:snap-object-midpoints="true"
     inkscape:snap-center="true"
     showguides="true"
     inkscape:guide-bbox="true"
     inkscape:window-width="1920"
     inkscape:window-height="1023"
     inkscape:window-x="-10"
     inkscape:window-y="35"
     inkscape:window-maximized="1"
     inkscape:snap-global="true"
     fit-margin-top="0"
     fit-margin-left="0"
     fit-margin-right="0"
     fit-margin-bottom="0"
     showborder="true"
     inkscape:showpageshadow="false"
     inkscape:snap-page="true">
    <inkscape:grid
       type="xygrid"
       id="grid3075"
       empspacing="5"
       visible="true"
       enabled="true"
       snapvisiblegridlinesonly="true"
       originx="0px"
       originy="18px" />
  </sodipodi:namedview>
  <defs
     id="defs13096" />
  <metadata
     id="metadata13099">
    <rdf:RDF>
      <cc:Work
         rdf:about="">
        <dc:format>image/svg+xml</dc:format>
        <dc:type
           rdf:resource="http://purl.org/dc/dcmitype/StillImage" />
        <dc:title></dc:title>
      </cc:Work>
    </rdf:RDF>
  </metadata>
  <path
     inkscape:connector-curvature="0"
     style="color:#000000;fill:#2aa3b9;fill-opacity:1;fill-rule:nonzero;stroke:none;stroke-width:2.28571415;marker:none;visibility:visible;display:inline;overflow:visible;enable-background:accumulate"
     d="m 0,4 0,30 0,28 2,2 30,0 30,0 2,-2 L 64,34 64,4 32,4 0,4 z"
     id="path3443" />
  <path
     inkscape:connector-curvature="0"
     style="color:#000000;fill:#78e4f7;fill-opacity:1;fill-rule:nonzero;stroke:none;stroke-width:2.28571415000000000;marker:none;visibility:visible;display:inline;overflow:visible;enable-background:accumulate"
     d="M 2,0 0,1 0,4 32,4 64,4 64,1 62,0 32,0 2,0 z"
     id="path3447" />
  <path
     style="fill:#a5edfa;fill-opacity:1;fill-rule:nonzero"
     d="M 0,3 0,6 2,4 Z"
     id="path4298"
     inkscape:connector-curvature="0"
     sodipodi:nodetypes="cccc" />
  <path
     d="M 64,6 62,4 64,3 z"
     id="path3028"
     style="fill:#52c4d9;fill-opacity:1"
     inkscape:connector-curvature="0" />
  <g
     id="g3043"
     inkscape:export-filename="folder.png"
     inkscape:export-xdpi="90"
     inkscape:export-ydpi="90"
     transform="translate(-0.625,0.082283)" />
  <g
     id="scalable"
     transform="matrix(1.0385892,0,0,1.0385892,1214.7222,1878.8121)"
     inkscape:label="#g3701"
     style="fill:#ffffff" />
  <g
     id="g4112"
     transform="translate(5.0000009,3.0000012)">
    <path
       sodipodi:type="arc"
       style="color:#000000;fill:#005c7e;fill-opacity:0.36672631;fill-rule:evenodd;stroke:none;stroke-width:0.46224943;marker:none;visibility:visible;display:inline;overflow:visible;enable-background:accumulate"
       id="path4114"
       sodipodi:cx="44.5"
       sodipodi:cy="42.5"
       sodipodi:rx="16.5"
       sodipodi:ry="16.5"
       d="M 61,42.5 A 16.5,16.5 0 0 1 44.5,59 16.5,16.5 0 0 1 28,42.5 16.5,16.5 0 0 1 44.5,26 16.5,16.5 0 0 1 61,42.5 Z"
       transform="matrix(1.0909091,0,0,1.0909091,-10.545456,-6.3636381)" />
    <path
       transform="matrix(0.78787885,0,0,0.78787885,2.9393901,6.5151475)"
       d="M 61,42.5 A 16.5,16.5 0 0 1 44.5,59 16.5,16.5 0 0 1 28,42.5 16.5,16.5 0 0 1 44.5,26 16.5,16.5 0 0 1 61,42.5 Z"
       sodipodi:ry="16.5"
       sodipodi:rx="16.5"
       sodipodi:cy="42.5"
       sodipodi:cx="44.5"
       id="path4116"
       style="color:#000000;fill:#2fb1f3;fill-opacity:1;fill-rule:nonzero;stroke:none;stroke-width:1.83333325;marker:none;visibility:visible;display:inline;overflow:visible;enable-background:accumulate"
       sodipodi:type="arc" />
  </g>
  <g
     transform="matrix(0.75,0,0,0.75,-8.9999994,-9.4999992)"
     id="g4146">
    <path
       sodipodi:type="arc"
       style="color:#000000;fill:#005c7e;fill-opacity:0.36672631;fill-rule:evenodd;stroke:none;stroke-width:0.46224943;marker:none;visibility:visible;display:inline;overflow:visible;enable-background:accumulate"
       id="path4148"
       sodipodi:cx="44.5"
       sodipodi:cy="42.5"
       sodipodi:rx="16.5"
       sodipodi:ry="16.5"
       d="M 61,42.5 A 16.5,16.5 0 0 1 44.5,59 16.5,16.5 0 0 1 28,42.5 16.5,16.5 0 0 1 44.5,26 16.5,16.5 0 0 1 61,42.5 Z"
       transform="matrix(1.0909091,0,0,1.0909091,-10.545456,-6.3636381)" />
    <path
       transform="matrix(0.84848486,0,0,0.84848486,0.24242274,3.9393922)"
       d="M 61,42.5 A 16.5,16.5 0 0 1 44.5,59 16.5,16.5 0 0 1 28,42.5 16.5,16.5 0 0 1 44.5,26 16.5,16.5 0 0 1 61,42.5 Z"
       sodipodi:ry="16.5"
       sodipodi:rx="16.5"
       sodipodi:cy="42.5"
       sodipodi:cx="44.5"
       id="path4150"
       style="color:#000000;fill:#ca59d3;fill-opacity:1;fill-rule:nonzero;stroke:none;stroke-width:1.83333325;marker:none;visibility:visible;display:inline;overflow:visible;enable-background:accumulate"
       sodipodi:type="arc" />
  </g>
  <g
     transform="matrix(0.61111112,0,0,0.61111112,-9.2222219,25.555556)"
     id="g4180">
    <path
       sodipodi:type="arc"
       style="color:#000000;fill:#005c7e;fill-opacity:0.36672631;fill-rule:evenodd;stroke:none;stroke-width:0.46224943;marker:none;visibility:visible;display:inline;overflow:visible;enable-background:accumulate"
       id="path4182"
       sodipodi:cx="44.5"
       sodipodi:cy="42.5"
       sodipodi:rx="16.5"
       sodipodi:ry="16.5"
       d="M 61,42.5 A 16.5,16.5 0 0 1 44.5,59 16.5,16.5 0 0 1 28,42.5 16.5,16.5 0 0 1 44.5,26 16.5,16.5 0 0 1 61,42.5 Z"
       transform="matrix(1.0909091,0,0,1.0909091,-10.545456,-6.3636381)" />
    <path
       transform="matrix(0.79338842,0,0,0.79338842,2.6942143,6.2809909)"
       d="M 61,42.5 A 16.5,16.5 0 0 1 44.5,59 16.5,16.5 0 0 1 28,42.5 16.5,16.5 0 0 1 44.5,26 16.5,16.5 0 0 1 61,42.5 Z"
       sodipodi:ry="16.5"
       sodipodi:rx="16.5"
       sodipodi:cy="42.5"
       sodipodi:cx="44.5"
       id="path4184"
       style="color:#000000;fill:#42ce5a;fill-opacity:1;fill-rule:nonzero;stroke:none;stroke-width:1.83333325;marker:none;visibility:visible;display:inline;overflow:visible;enable-background:accumulate"
       sodipodi:type="arc" />
  </g>
  <g
     id="g3137"
     transform="matrix(0.44444444,0,0,0.44444444,36.111112,-2.7777769)">
    <path
       transform="matrix(1.0909091,0,0,1.0909091,-10.545456,-6.3636381)"
       d="M 61,42.5 A 16.5,16.5 0 0 1 44.5,59 16.5,16.5 0 0 1 28,42.5 16.5,16.5 0 0 1 44.5,26 16.5,16.5 0 0 1 61,42.5 Z"
       sodipodi:ry="16.5"
       sodipodi:rx="16.5"
       sodipodi:cy="42.5"
       sodipodi:cx="44.5"
       id="path3096"
       style="color:#000000;fill:#005c7e;fill-opacity:0.36672631;fill-rule:evenodd;stroke:none;stroke-width:0.46224943;marker:none;visibility:visible;display:inline;overflow:visible;enable-background:accumulate"
       sodipodi:type="arc" />
    <path
       sodipodi:type="arc"
       style="color:#000000;fill:#e1c33b;fill-opacity:1;fill-rule:nonzero;stroke:none;stroke-width:1.83333325;marker:none;visibility:visible;display:inline;overflow:visible;enable-background:accumulate"
       id="path3098"
       sodipodi:cx="44.5"
       sodipodi:cy="42.5"
       sodipodi:rx="16.5"
       sodipodi:ry="16.5"
       d="M 61,42.5 A 16.5,16.5 0 0 1 44.5,59 16.5,16.5 0 0 1 28,42.5 16.5,16.5 0 0 1 44.5,26 16.5,16.5 0 0 1 61,42.5 Z"
       transform="matrix(0.81818178,0,0,0.81818178,1.5909098,5.2272731)" />
  </g>
</svg>
